X:1
T:Title
%%score { ( 1 3 ) | 2 }
L:1/8
M:4/4
K:C
V:1 treble nm="Grand Piano"
V:3 treble 
V:2 bass 
V:1
 z4 z2[Q:1/4=92] [CE][DF] | [EG][_E^F][=EG][=FA] [EG][Ec][CGc][CGB] | %2
 [CFA][CAc][CGB][CFA] [CEG]2 [G,CE][G,DF] | [EG][_E^F][=EG][=FA] [EG][CE][_EF][C=E] | [B,D]6 GG | %5
[M:17/16] cccc[^GB][GB]3/2EE |[M:3/4] AA AA [EG]2 |[M:1/4] [EG][EG] | %8
[M:4/4] ^FFFE D[EFc][DFB][CFA] |[M:3/4] [B,DG]6 |[M:1/4] GG | %11
[M:4/4] [Ec]2 [Ec][Ec] [Fc][FB] [Fc]>[FA] | G2- [FG-][FG-] [EG]2 [EG][EG] | %13
 [Ec]2 [Ec][Ec] [^Fc][FA][FB][Fc] |[M:17/16] d/-d/-d/-d/-d/-d/-d/-d/-d-<de3/2d | %15
[M:7/8] ccc c [^Gc]3 |[M:1/4] EE |[M:9/8] AAA A c2- c[^Gd][Gd] | e2 c AGc- c<d[Fc] | %19
[M:3/4] [Ec]6 |] %20
V:2
 z4 z2 [C,G,][C,G,] | [C,C][C,C][C,C][C,C] [C,C][C,G,]E,E, | F,F,F,F, C,2 C,C, | %3
 [C,C][C,C][C,C][C,C] [C,C][C,G,][B,,G,][C,G,] | [G,,G,]6[K:treble] [G,B,F][G,B,F] | %5
[M:17/16] [A,CE][A,CE][A,CE][K:bass][A,CE][E,D][E,D]3/2[E,D][E,D] | %6
[M:3/4] [F,CF][F,CF] [F,CF][F,CF] [C,C]2 |[M:1/4] [C,C][C,C] | %8
[M:4/4] [D,CD][D,CD][D,CD][E,CD] [^F,C]D,D,D, |[M:3/4] G,6 |[M:1/4] G,G, | %11
[M:4/4] [C,G,]2 [C,G,][C,G,] [C,A,][C,A,] [C,A,]>[C,A,] | [C,C]2 [G,B,][G,B,] C2 [C,C][C,C] | %13
 [C,C]2 [C,C][C,C] [D,A,][D,D][D,D][D,C] | %14
[M:17/16][K:treble] [G,B,F]/-[G,B,F]/-[G,B,F]/-[G,B,F]/-[G,B,F]/-[G,B,F]/-[G,B,F]/-[G,B,F]/-[G,B,F]-<[G,B,F][G,B,G]3/2[G,B,F] | %15
[M:7/8][K:bass] [A,CE][A,CE][A,CE] [A,CE] [E,D]3 |[M:1/4][K:treble] [^G,D][G,D] | %17
[M:9/8] [A,CE][A,CE][A,CE] [A,CE] [A,CA]2- [A,CA][K:bass][F,C][F,C] | %18
 [G,CG]2 [G,CE] [G,CE][G,CE][G,CE]- [G,CE]<[G,B,F][K:bass][D,A,] |[M:3/4] [C,G,]6 |] %20
V:3
 x8 | x8 | x8 | x8 | x8 |[M:17/16] x17/2 |[M:3/4] x6 |[M:1/4] x2 |[M:4/4] x8 |[M:3/4] x6 | %10
[M:1/4] x2 |[M:4/4] x8 | E2 z2 z4 | x8 |[M:17/16] x17/2 |[M:7/8] x7 |[M:1/4] x2 |[M:9/8] x9 | x9 | %19
[M:3/4] x6 |] %20

